X: 182
T:We won't go Home Till Morning
M:6/8
L:1/8
A:English
K:G
GA |\
B2B BAB | c2c BcB | A2A AGA | B2A GDG |\
B2B BAB | c2d efg | d2c B2A | G3 G :|
|: GB |\
d2B e2e | d3 dGB | d2B e2e | d3 dGA |\
B2B BAB | c2d efg | d2c B2A | G3 G :|
